24x24/apps/org.glimpse_editor.Glimpse.svg

<svg xmlns="http://www.w3.org/2000/svg" height="24" width="24" version="1.1">
 <g transform="translate(1,1)">
  <path d="m11.017578 1.4997095c-0.145853-0.00261-0.29051 0.026724-0.423828 0.085937l-9 4c-0.3611503 0.160592-0.59384329 0.5188169-0.59375 0.9140629v10.000001c-0.00009289 0.395246 0.2326 0.75347 0.59375 0.914062l9 4c0.258632 0.114971 0.553868 0.114971 0.8125 0l9-4c0.36115-0.160592 0.593843-0.518816 0.59375-0.914062v-10.000001c0.000093-0.3952454-0.2326-0.75347-0.59375-0.9140621l-9-4c-0.12249-0.0544-0.254665-0.083625-0.388672-0.085937z" style="opacity:.2"/>
  <path d="m11.017578 1c-0.145853-0.002607-0.29051 0.026724-0.423828 0.085937l-9 4c-0.3611503 0.1605921-0.59384329 0.518817-0.59375 0.914063v10c-0.00009289 0.395246 0.2326 0.75347 0.59375 0.914062l9 4c0.258632 0.114971 0.553868 0.114971 0.8125 0l9-4c0.36115-0.160592 0.593843-0.518816 0.59375-0.914062v-10c0.000093-0.3952458-0.2326-0.7534704-0.59375-0.9140625l-9-4c-0.12249-0.0544001-0.254665-0.0836247-0.388672-0.0859375z" style="fill:#17191e"/>
  <path style="fill:#f4f4f7;opacity:.1" d="m11.017578 1c-0.145853-0.002607-0.29051 0.026725-0.423828 0.085937l-9 4c-0.3611503 0.1605926-0.59384329 0.518817-0.59375 0.914063v0.5c-0.00009329-0.395246 0.2325997-0.7534705 0.59375-0.9140625l9-4c0.133318-0.059213 0.277975-0.0885475 0.423828-0.0859375 0.134007 0.00231 0.266182 0.031537 0.388672 0.085937l9 4c0.36115 0.1605926 0.593843 0.5188172 0.59375 0.914063v-0.5c0.000093-0.3952458-0.2326-0.7534704-0.59375-0.9140625l-9-4c-0.12249-0.0544-0.254665-0.083625-0.388672-0.0859375z"/>
  <path d="m11.482422 4.4996267c-0.269243 0.0095-0.482563 0.2305896-0.482422 0.5v5.9999993c0.000172 0.189613 0.107574 0.362818 0.277344 0.447266l6 3c0.332219 0.165162 0.722283-0.076257 0.722656-0.447266v-5.9999993c-0.000172-0.1896133-0.107574-0.362818-0.277344-0.4472656l-6-3c-0.07444-0.037305-0.157014-0.055431-0.240234-0.052734z" style="opacity:.2"/>
  <path d="m11.482422 3.999813c-0.269243 0.0095-0.482563 0.2305896-0.482422 0.5v6c0.000172 0.189613 0.107574 0.362818 0.277344 0.447266l6 3c0.332219 0.165162 0.722283-0.076257 0.722656-0.447266v-6c-0.000172-0.1896133-0.107574-0.362818-0.277344-0.4472656l-6-3c-0.07444-0.037305-0.157014-0.055431-0.240234-0.052734z" style="fill:#5891d9"/>
  <path d="m8.482422 6.4998137c-0.2692429 0.0095-0.4825624 0.2305896-0.4824219 0.5v5.9999993c0.0001717 0.189613 0.1075737 0.362818 0.2773438 0.447266l6.0000001 3c0.332219 0.165162 0.722283-0.076257 0.722656-0.447266v-5.9999993c-0.000172-0.1896133-0.107574-0.362818-0.277344-0.4472656l-5.9999997-3c-0.0744388-0.0373047-0.1570147-0.0554311-0.2402343-0.0527344z" style="opacity:.2"/>
  <path d="m8.482422 6c-0.2692429 0.0095-0.4825624 0.2305896-0.4824219 0.5v6c0.0001717 0.189613 0.1075737 0.362818 0.2773438 0.447266l6.0000001 3c0.332219 0.165162 0.722283-0.076257 0.722656-0.447266v-6c-0.000172-0.1896133-0.107574-0.362818-0.277344-0.4472656l-5.9999997-3c-0.0744388-0.0373047-0.1570147-0.0554311-0.2402343-0.0527344z" style="fill:#8ed599"/>
  <path d="m4.4824219 8.4998137c-0.2692429 0.0095-0.4825624 0.2305896-0.4824219 0.5v5.9999993c0.0001717 0.189613 0.1075737 0.362818 0.2773438 0.447266l6.0000002 3c0.332219 0.165162 0.722283-0.07626 0.722656-0.447266v-6c-0.000172-0.189613-0.107574-0.362818-0.277344-0.447266l-5.9999998-2.9999989c-0.0744388-0.037305-0.1570147-0.055431-0.2402343-0.0527344z" style="opacity:.2"/>
  <path style="fill:#f4f4f7" d="m8 12v0.5c0.0001717 0.189613 0.1075736 0.362818 0.2773438 0.447266l6.0000002 3c0.332219 0.165162 0.722283-0.076257 0.722656-0.447266v-1.5l-2-2z"/>
  <path d="m4.4824219 8c-0.2692429 0.0094974-0.4825624 0.2305896-0.4824219 0.5v6c0.0001717 0.189613 0.1075737 0.362818 0.2773438 0.447266l6.0000002 3c0.332219 0.165162 0.722283-0.076257 0.722656-0.447266v-6c-0.000172-0.189613-0.107574-0.362818-0.277344-0.447266l-5.9999998-2.9999996c-0.0744388-0.0373047-0.1570147-0.0554311-0.2402343-0.0527344z" style="fill:#d75a86"/>
  <path style="fill:#f4f4f7;opacity:.2" d="m11.482422 4c-0.269243 0.0095-0.482563 0.2305896-0.482422 0.5v0.5c-0.000141-0.2694104 0.213179-0.4905 0.482422-0.5 0.08322-0.0027 0.165794 0.015429 0.240234 0.052734l6 3c0.16977 0.084448 0.277172 0.2576527 0.277344 0.447266v-0.5c-0.000172-0.1896133-0.107574-0.362818-0.277344-0.4472656l-6-3c-0.07444-0.037305-0.157014-0.055431-0.240234-0.0527344z"/>
  <path style="fill:#f4f4f7;opacity:.2" d="m8.4824219 6c-0.2692429 0.0095-0.4825624 0.2305896-0.4824219 0.5v0.5c-0.0001405-0.2694104 0.213179-0.4905 0.4824219-0.5 0.08322-0.0027 0.1657955 0.01543 0.2402343 0.052734l5.9999998 3c0.16977 0.084448 0.277172 0.2576527 0.277344 0.447266v-0.5c-0.000172-0.1896133-0.107574-0.362818-0.277344-0.4472656l-5.9999998-3c-0.0744388-0.0373047-0.1570147-0.0554311-0.2402343-0.0527344z"/>
  <path style="fill:#f4f4f7;opacity:.2" d="m4.4824219 8c-0.2692429 0.0095-0.4825624 0.2305896-0.4824219 0.5v0.5c-0.0001405-0.2694104 0.213179-0.4905 0.4824219-0.5 0.08322-0.0027 0.1657955 0.015429 0.2402343 0.052734l5.9999998 3c0.16977 0.084448 0.277172 0.257653 0.277344 0.447266v-0.5c-0.000172-0.189613-0.107574-0.362818-0.277344-0.447266l-5.9999998-2.9999996c-0.0744388-0.037305-0.1570147-0.055431-0.2402343-0.0527344z"/>
  <path d="m4 12v2.5c0.0001717 0.189613 0.1075736 0.362818 0.2773438 0.447266l5.9003902 2.949218c0.297198 0.184951 0.539261 0.103516 0.700287-0.068359l-4.878021-5.828125z" style="fill:#f4f4f7"/>
  <path d="m16 8s-1 0.2447034-1 1c0 0.4714045 0.577948 1 1 1 0.671364 0 1-0.5476695 1-0.5476695s-0.716592 0.022144-1-0.4523305c-0.259581-0.4345845 0-1 0-1z" style="fill:#f4f4f7"/>
 </g>
</svg>

<svg xmlns="http://www.w3.org/2000/svg" height="24" width="24"><path d="M11.018 1.5a1 1 0 0 0-.424.086l-9 4A1 1 0 0 0 1 6.5v10a1 1 0 0 0 .594.914l9 4a1 1 0 0 0 .812 0l9-4A1 1 0 0 0 21 16.5v-10a1 1 0 0 0-.594-.914l-9-4a1 1 0 0 0-.388-.086z" style="opacity:.2" transform="translate(1 1)"/><path d="M11.018 1a1 1 0 0 0-.424.086l-9 4A1 1 0 0 0 1 6v10a1 1 0 0 0 .594.914l9 4a1 1 0 0 0 .812 0l9-4A1 1 0 0 0 21 16V6a1 1 0 0 0-.594-.914l-9-4A1 1 0 0 0 11.018 1z" style="fill:#17191e" transform="translate(1 1)"/><path style="fill:#f4f4f7;opacity:.1" d="M11.018 1a1 1 0 0 0-.424.086l-9 4A1 1 0 0 0 1 6v.5a1 1 0 0 1 .594-.914l9-4a1 1 0 0 1 .812 0l9 4A1 1 0 0 1 21 6.5V6a1 1 0 0 0-.594-.914l-9-4A1 1 0 0 0 11.018 1z" transform="translate(1 1)"/><path d="M11.482 4.5A.5.5 0 0 0 11 5v6a.5.5 0 0 0 .277.447l6 3A.5.5 0 0 0 18 14V8a.5.5 0 0 0-.277-.448l-6-3a.5.5 0 0 0-.24-.052z" style="opacity:.2" transform="translate(1 1)"/><path d="M11.482 4a.5.5 0 0 0-.482.5v6a.5.5 0 0 0 .277.447l6 3A.5.5 0 0 0 18 13.5v-6a.5.5 0 0 0-.277-.447l-6-3a.5.5 0 0 0-.24-.053z" style="fill:#5891d9" transform="translate(1 1)"/><path d="M8.482 6.5A.5.5 0 0 0 8 7v6a.5.5 0 0 0 .277.447l6 3A.5.5 0 0 0 15 16v-6a.5.5 0 0 0-.277-.447l-6-3a.5.5 0 0 0-.24-.053z" style="opacity:.2" transform="translate(1 1)"/><path d="M8.482 6A.5.5 0 0 0 8 6.5v6a.5.5 0 0 0 .277.447l6 3A.5.5 0 0 0 15 15.5v-6a.5.5 0 0 0-.277-.447l-6-3A.5.5 0 0 0 8.483 6z" style="fill:#8ed599" transform="translate(1 1)"/><path d="M4.482 8.5A.5.5 0 0 0 4 9v6a.5.5 0 0 0 .277.447l6 3A.5.5 0 0 0 11 18v-6a.5.5 0 0 0-.277-.447l-6-3a.5.5 0 0 0-.24-.053z" style="opacity:.2" transform="translate(1 1)"/><path style="fill:#f4f4f7" d="M8 12v.5a.5.5 0 0 0 .277.447l6 3A.5.5 0 0 0 15 15.5V14l-2-2z" transform="translate(1 1)"/><path d="M4.482 8A.5.5 0 0 0 4 8.5v6a.5.5 0 0 0 .277.447l6 3A.5.5 0 0 0 11 17.5v-6a.5.5 0 0 0-.277-.447l-6-3A.5.5 0 0 0 4.483 8z" style="fill:#d75a86" transform="translate(1 1)"/><path style="fill:#f4f4f7;opacity:.2" d="M11.482 4a.5.5 0 0 0-.482.5V5a.5.5 0 0 1 .723-.447l6 3A.5.5 0 0 1 18 8v-.5a.5.5 0 0 0-.277-.447l-6-3a.5.5 0 0 0-.24-.053zM8.482 6A.5.5 0 0 0 8 6.5V7a.5.5 0 0 1 .723-.447l6 3A.5.5 0 0 1 15 10v-.5a.5.5 0 0 0-.277-.447l-6-3A.5.5 0 0 0 8.483 6zM4.482 8A.5.5 0 0 0 4 8.5V9a.5.5 0 0 1 .723-.447l6 3A.5.5 0 0 1 11 12v-.5a.5.5 0 0 0-.277-.447l-6-3A.5.5 0 0 0 4.483 8z" transform="translate(1 1)"/><path d="M4 12v2.5a.5.5 0 0 0 .277.447l5.9 2.95c.298.184.54.103.701-.069L6 12zM16 8s-1 .245-1 1c0 .471.578 1 1 1 .671 0 1-.548 1-.548s-.717.022-1-.452c-.26-.435 0-1 0-1z" style="fill:#f4f4f7" transform="translate(1 1)"/></svg>
